img/icons/corp/2.svg

<svg width="71" height="57" viewBox="0 0 71 57" fill="none" xmlns="http://www.w3.org/2000/svg">
<path fill-rule="evenodd" clip-rule="evenodd" d="M26.8467 1.96503C26.8467 0.82177 27.7546 -0.0765028 28.9102 0.00515826C29.9832 0.00515826 30.8912 0.903431 30.8912 1.96503C30.8912 3.10828 29.9832 4.00655 28.9102 4.00655C27.7546 3.92489 26.8467 3.02662 26.8467 1.96503Z" fill="black"/>
<path fill-rule="evenodd" clip-rule="evenodd" d="M33.2031 1.96503C33.2031 0.82177 34.1111 -0.0765028 35.2666 0.00515826C36.3397 0.00515826 37.2476 0.903431 37.2476 1.96503C37.2476 3.10828 36.3397 4.00655 35.2666 4.00655C34.1111 3.92489 33.2031 3.02662 33.2031 1.96503Z" fill="black"/>
<path fill-rule="evenodd" clip-rule="evenodd" d="M39.4756 1.96503C39.4756 0.82177 40.3835 -0.0765028 41.5391 0.00515826C42.6121 0.00515826 43.5201 0.903431 43.5201 1.96503C43.5201 3.10828 42.6121 4.00655 41.5391 4.00655C40.3835 3.92489 39.4756 3.02662 39.4756 1.96503Z" fill="black"/>
<path fill-rule="evenodd" clip-rule="evenodd" d="M50.29 14.8675C50.29 11.9277 52.6837 9.55955 55.6552 9.64121C58.4615 9.64121 60.8552 12.0094 60.8552 14.7859C60.9377 17.7257 58.5441 20.0938 55.5726 20.0938C52.6837 20.0938 50.29 17.7257 50.29 14.8675Z" fill="black"/>
<path fill-rule="evenodd" clip-rule="evenodd" d="M10.2568 14.8675C10.2568 11.9277 12.6505 9.55955 15.622 9.64121C18.4283 9.64121 20.822 12.0094 20.822 14.7859C20.9045 17.7257 18.5109 20.0938 15.5394 20.0938C12.6505 20.0938 10.2568 17.7257 10.2568 14.8675Z" fill="black"/>
<path d="M21.2348 37.1612H20.9047L10.0919 36.5896L12.8982 29.485L18.1808 32.0982L18.7586 32.3432C18.9237 32.4248 19.1713 32.5065 19.4189 32.5065L29.4888 32.3432L29.4063 29.485L20.1618 28.0968L11.6601 21.7272L7.6982 20.584L0.352116 38.8761L0.269575 39.0394C0.104495 39.5294 -0.0605857 40.101 0.0219546 40.7543C0.104495 42.9591 2.08546 44.674 4.31405 44.5107L18.511 43.6124L19.0062 56.4332L23.5459 56.5965L24.2888 40.2643C24.2063 38.6311 22.9682 37.2428 21.2348 37.1612Z" fill="black"/>
<path d="M49.1344 37.1608H49.4646L60.2774 36.5892L57.471 29.403L52.1059 32.0162L51.5281 32.2611C51.363 32.3428 51.1154 32.4245 50.8678 32.4245L40.7979 32.2611L40.8804 29.403L50.1249 28.0148L58.6266 21.5635L62.5885 20.502L69.9346 38.794L70.0171 38.9574C70.1822 39.4473 70.3473 40.019 70.2647 40.6722C70.1822 42.8771 68.2012 44.592 65.9726 44.4286L51.7757 43.5304L51.2805 56.3512L46.7408 56.5145L45.9979 40.1823C46.163 38.6307 47.4011 37.2425 49.1344 37.1608Z" fill="black"/>
<path d="M45.4192 34.1396H24.9492V37.5694H45.4192V34.1396Z" fill="black"/>
<path d="M36.8338 35.3643H33.5322V56.2695H36.8338V35.3643Z" fill="black"/>
</svg>

<svg width="71" height="57" fill="none" xmlns="http://www.w3.org/2000/svg"><path fill-rule="evenodd" clip-rule="evenodd" d="M26.847 1.965c0-1.143.908-2.042 2.063-1.96 1.073 0 1.981.898 1.981 1.96 0 1.143-.908 2.042-1.98 2.042-1.156-.082-2.064-.98-2.064-2.042zm6.356 0c0-1.143.908-2.042 2.064-1.96 1.073 0 1.98.898 1.98 1.96 0 1.143-.907 2.042-1.98 2.042-1.156-.082-2.064-.98-2.064-2.042zm6.273 0c0-1.143.907-2.042 2.063-1.96 1.073 0 1.981.898 1.981 1.96 0 1.143-.908 2.042-1.98 2.042-1.157-.082-2.064-.98-2.064-2.042zM50.29 14.867a5.207 5.207 0 0 1 5.365-5.226c2.806 0 5.2 2.368 5.2 5.145.083 2.94-2.31 5.308-5.282 5.308-2.89 0-5.283-2.368-5.283-5.227zm-40.033 0a5.207 5.207 0 0 1 5.365-5.226c2.806 0 5.2 2.368 5.2 5.145.082 2.94-2.311 5.308-5.283 5.308-2.889 0-5.282-2.368-5.282-5.227z" fill="#000"/><path d="M21.235 37.161h-.33l-10.813-.571 2.806-7.105 5.283 2.613.578.245c.165.082.412.163.66.163l10.07-.163-.083-2.858-9.244-1.388-8.502-6.37-3.962-1.143L.352 38.876l-.082.163c-.166.49-.33 1.062-.248 1.715.082 2.205 2.063 3.92 4.292 3.757l14.197-.899.495 12.821 4.54.163.743-16.332c-.083-1.633-1.32-3.021-3.054-3.103zm27.899-.001h.33l10.813-.57-2.806-7.187-5.365 2.613-.578.245a1.568 1.568 0 0 1-.66.163l-10.07-.163.082-2.858 9.245-1.388 8.502-6.451 3.962-1.062 7.346 18.292.082.163c.165.49.33 1.062.248 1.715-.083 2.205-2.064 3.92-4.292 3.757l-14.197-.899-.495 12.821-4.54.163-.743-16.332c.165-1.551 1.403-2.94 3.136-3.021z" fill="#000"/><path d="M45.42 34.14H24.95v3.43h20.47v-3.43z" fill="#000"/><path d="M36.834 35.364h-3.302V56.27h3.302V35.364z" fill="#000"/></svg>
